svgs/1F448-1F3FC.svg

<svg xmlns="http://www.w3.org/2000/svg" xmlns:xlink="http://www.w3.org/1999/xlink" preserveAspectRatio="none" viewBox="0 0 72 72"><defs><path id="a" fill="#E0BB95" d="M93.15 52.8q-3.7.05-5.7-1.8-1.7-1.5-4.65-1.7-2.3-.2-4.6.4-1.15.25-2.4-.3-.05 0-2.5-1.45-1.5-.85-3.85-.75-2.2.05-3.35.85-1.6 1.05-2.3.2-.75-.9-.75-4.05-.4-24.55-.8-30.4-.5-8.15-2.15-9.8-1.55-1.6-4.45-1.9-2.6-.3-4.05.55-2.05 1.2-2.8 2.6-1.05 1.9-1.55 6.65-.45 3.95-.55 19.9-.15 16.65-.2 17.45l-.15 1.2q-.1.7-.75.8-.65.15-1.05-.4-3.2-4.45-6.2-6.1-2-1.05-4.45-1-2.55.05-4.55 1.65-1.65 1.35-2.5 3.25-1.1 2.35-.75 4.7.3 2.15 1.85 4.9 1.2 2.1 6.7 11.65 5.2 9.35 6.85 14 1.95 5.5 4.1 8.4 1.8 2.45 9.3 10.15 1.5 1.6 1.75 5.7.1 2.45-.05 8.8 0 3.55.55 4.85 1.05 2.6 4.65 3.4 3.95.9 13.5.85 9.05-.05 14.8-.85 5.1-.7 6.85-3.6 1.35-2.3 1.35-7.65 0-2.3-.15-6.4-.15-4.1-.15-6 0-3.1.75-6.35.3-1.4 1.7-6.2 1.45-4.95 1.35-13.1-.4-9.4-.4-14.1 0-5.1-3.2-7.45-2.2-1.6-5.05-1.55z"/><path id="b" fill="#C48E6A" d="M26.05 28.35q-.05.4-.4.45-.4.1-.6-.2-1.2-1.7-2.4-2.7 2 2.75 2.8 5.6.5 1.8.85 5.85.05.5.4.8.4.35.9.3.45-.05.8-.35.3-.35.3-.85v-.1q-.35-4.3-.95-6.4-.5-1.9-1.6-3.85v.8l-.1.65z"/></defs><use transform="matrix(0 .5625 .5625 0 -.15 .05)" xlink:href="#a"/><use transform="matrix(0 1 1 0 -.15 .05)" xlink:href="#b"/></svg>

<svg xmlns="http://www.w3.org/2000/svg" version="1.1" xmlns:xlink="http://www.w3.org/1999/xlink" preserveAspectRatio="none" x="0px" y="0px" width="72px" height="72px" viewBox="0 0 72 72">
<defs>
<g id="Layer0_0_MEMBER_0_FILL">
<path fill="#E0BB95" stroke="none" d="
M 93.15 52.8
Q 89.45 52.85 87.45 51 85.75 49.5 82.8 49.3 80.5 49.1 78.2 49.7 77.05 49.95 75.8 49.4 75.75 49.4 73.3 47.95 71.8 47.1 69.45 47.2 67.25 47.25 66.1 48.05 64.5 49.1 63.8 48.25 63.05 47.35 63.05 44.2 62.65 19.65 62.25 13.8 61.75 5.65 60.1 4 58.55 2.4 55.65 2.1 53.05 1.8 51.6 2.65 49.55 3.85 48.8 5.25 47.75 7.15 47.25 11.9 46.8 15.85 46.7 31.8 46.55 48.45 46.5 49.25
L 46.35 50.45
Q 46.25 51.15 45.6 51.25 44.95 51.4 44.55 50.85 41.35 46.4 38.35 44.75 36.35 43.7 33.9 43.75 31.35 43.8 29.35 45.4 27.7 46.75 26.85 48.65 25.75 51 26.1 53.35 26.4 55.5 27.95 58.25 29.15 60.35 34.65 69.9 39.85 79.25 41.5 83.9 43.45 89.4 45.6 92.3 47.4 94.75 54.9 102.45 56.4 104.05 56.65 108.15 56.75 110.6 56.6 116.95 56.6 120.5 57.15 121.8 58.2 124.4 61.8 125.2 65.75 126.1 75.3 126.05 84.35 126 90.1 125.2 95.2 124.5 96.95 121.6 98.3 119.3 98.3 113.95 98.3 111.65 98.15 107.55 98 103.45 98 101.55 98 98.45 98.75 95.2 99.05 93.8 100.45 89 101.9 84.05 101.8 75.9 101.4 66.5 101.4 61.8 101.4 56.7 98.2 54.35 96 52.75 93.15 52.8 Z"/>
</g>

<g id="Layer0_0_MEMBER_1_FILL">
<path fill="#C48E6A" stroke="none" d="
M 26.05 28.35
Q 26 28.75 25.65 28.8 25.25 28.9 25.05 28.6 23.85 26.9 22.65 25.9 24.65 28.65 25.45 31.5 25.95 33.3 26.3 37.35 26.35 37.85 26.7 38.15 27.1 38.5 27.6 38.45 28.05 38.4 28.4 38.1 28.7 37.75 28.7 37.25
L 28.7 37.15
Q 28.35 32.85 27.75 30.75 27.25 28.85 26.15 26.9 26.15 27.55 26.15 27.7
L 26.05 28.35 Z"/>
</g>
</defs>

<g id="Layer_1">
<g transform="matrix( 0, 0.5625, 0.5625, 0, -0.15,0.05) ">
<use xlink:href="#Layer0_0_MEMBER_0_FILL"/>
</g>

<g transform="matrix( 0, 1, 1, 0, -0.15,0.05) ">
<use xlink:href="#Layer0_0_MEMBER_1_FILL"/>
</g>
</g>
</svg>
